X:1280
T: Five Lamps (The)
C: BB
L: 1/8
M: 6/8
R: jig
Q: 1/8=320
K: D
z2 | "D" dcd AFD | "A"E^CE "D"DFA | "C"=cBc GEG | =cBc edc |
"D"dAd "C"=cAc | "G"BGB "A"ABc | "D"dAF "A"EFG | "D"FDD D :|
fg|"D"a^ga "G"ba=g | "D"fd^c def | "C"e=cc gcc | e=ce gfe |
"D"fef "G"gfg | "D"agf "Em"efg | "D"fdA "A"EFG | "D"FDD D :|
